X: 38120
T: Sport Of The Chase, The
R: slip jig
M: 9/8
K: Amajor
|:G2A B2G BdB|G2A B2G BGD|C3 ECE ECE|D2D FED AFD:|
|:G2g g2d BdB|G2g g2d BdB|c3 ece ece|d2d f/g/af gdB:|

